X:1
T:Elle a mon cueur
T:Elle a mon cueur
T:Pierre de Manchicourt
C:Pierre de Manchicourt
%%score [ 1 2 [ 3 4 ] ]
L:1/8
Q:1/4=120
M:2/2
K:C
V:1 treble nm="Superius" snm="S"
V:2 treble nm="Altus" snm="A"
V:3 treble-8 nm="Tenor 1" snm="T 1"
V:4 treble-8 nm="Tenor 2" snm="T 2"
V:1
 c8 | c4 B4 | A4 z4 | z4 z2 A2 | B2 c2 d2 B2 | cB AG FEDE | FEFG AB cA | Bc d4 c2 | d2 f2 f2 e2 | %9
w: Ell'|a mon|cueur,|je|croy qu'el- l'est con-|ten- * * * * * * *|||te et ne fault|
 f2 d2 cB AG | A2 B2 A2 d2 | d2 c2 d2 A2 | B2 c2 A2 c2- | c2 B4 A2- |"^#" A2 G2 A4- | A4 z4 | %16
w: point qu'ung aul- * * *|* * tr'ell' at-|ten- * te, qu'ung|ay- aul- tr'ell' at-|* * ten-|* * te,|_|
 A4 c2 d2 | c2 B2 A3 B | cd e2 c2 f2- | f2 e2 f2 z f | d2 e2 c2 c2 | d2 d2 c2 c2 | B2 AB cdec | %23
w: pour en pen-|ser jou- yr aul-|* * * * cu-|* ne- ment, car|noz deux cueurs ont-|u- ne pen- sé-||
 de f4 ed | c4 z2 e2 |: e2 e2 c2 e2 | f2 e2 d2 c2 | g3 f edcB | AGFG AB c2 | G2 d3 c e2- | %30
w: |e, que|se- pa- rer ne|se- ront nul- *||||
 ed d4 cB |1[M:2/4] c2 z e :|2[M:2/2] ed d4 c2 || d8 |] %34
w: * * * le _|ment, que|(nul)- * * le|ment.|
V:2
 A6 A2 | G4 G4 | z E F2 G2 A2- | A2 G4 F2 | G2 A2 D4 | z2 E2 F2 G2 | A3 G F2 E2 | G4 A4 | %8
w: Ell' a|mon cueur,|je croy qu'el- l'est|_ con- ten-|* * te,|[qu'el- l'est con-|ten- * * *||
 F4 z2 A2 | A2 G2 A2 E2 | F2 G2 E2 A2- | AG A4 GF | G4 F2 A2 | G4 F2 D2 | E4 z2 E2 | E2 F4 D2 | %16
w: te,] et|ne fault point qu'ung|aul- tr'ell' at- ten-||||te, pour|en pen- ser|
 F4 E2 D2 | A2 G2 F2 A2- | A2 G2 A4 | z2 c4 A2 | B2 G2 A4 | F2 G2 A2 E2 | G2 A4 G2- | GE A4 G2 | %24
w: jou- yr- aul-|* * * cu-|* ne- ment,|car noz|deux cueurs ont-|u- ne pen- sé-|||
 A8- |: A4 z2 A2 | A2 A2 F2 A2 | B2 G4 A2 | A3 G F2 E2- | EFGF/G/ AB c2 | A2 B2 A4- |1 %31
w: e,|_ que|se- pa- rer ne|se- ront nul-|||* le- ment,|
[M:2/4] A4 :|2[M:2/2] A2 B2 A4 ||"^#" F8 |] %34
w: _|(nul)- * le-|ment.|
V:3
 e8 | e4 d4 | c2 z A B2 c2 | d2 e3 d d2- | dc f4 ed | e2 A4 B2 | c2 d4 c2 | d4 e4 | z2 d2 d2 c2 | %9
w: Ell'|a mon|cueur, je croy qu'el-|l'est con- * ten-||||* te,|et ne fault|
 d2 B2 AGAB | c2 d2 c2 f2- | f2 e2 f4 | z2 e2 f2 e2 | e2 d2 c2 BA | B4 z2 A2 | c2 d2 c2 B2 | %16
w: point qu'ung aul- * * *|* tr'ell' at- ten-|* * te|qu'ung aul- tr'ell'|at- ten- * * *|te, pour|en pen- ser jou-|
 A2 d2 c2 f2- | fe d4 c2 | f2 e2 f4 | g4 f4 | z4 z2 f2- | f2 d2 e2 cc | d2 f2 f2 e2 | d2 c2 d4 | %24
w: yr aul- * *||* * cu-|ne- ment,|car|_ noz deux cueurs ont|u- ne pen- sé-|* * e,|
 z2 e2 e2 e2 |: c2 e2 f2 e2 | d2 c2 d2 z e | e2 e2 c2 e2 | f3 e d2 c2 | e2 d2 f2 e2 | %30
w: que se- pa-|rer ne se- ront|nul- le- ment, que-|se- pa- rer ne|se- ront nul- *||
 f2 g2 e2 z e |1[M:2/4] e2 e2 :|2[M:2/2] f2 g2 e4 || d8 |] %34
w: * le- ment, que|se- pa-|(nul)- * le-|ment.|
V:4
 A8 | c4 G4 | A4 z2 A2 |"^#" B2 c2 d3 c | B2 A2 B4 | A4 D2 G2 | F2 DE FG A2 | G2 B2 A4 | D4 z4 | %9
w: Ell'|a mon|cueur, je|croy qu'el- l'est con-|ten- * *||||te,|
 z4 z2 A2 | A2 G2 A2 D2 | A4 D2 d2 | d2 c2 d2 A2 | c2 G2 A2 F2 | E4 A4 | z2 D2 F2 G2 | %16
w: et|ne fault point qu'ung|aul- tr'ell' at-|ten- * * *||* te,|pour en pen-|
 F2 D2 A2 B2 |"^b" F2 G2 DEFG | AB c2 A2 F2 | c4 z2 d2 | B2 c2 A2 F2 |"^b""^b" B2 B2 A2 A2 | %22
w: ser jou- yr aul-||* * * cu- ne-|ment, car|noz deux cueurs ont|u- ne me- me|
 G2 FG AB cA |"^b""^b" B2 A2 B4 | A8 |: z2 A2 A2 A2 |"^b" F2 A2 B2 A2 | G2 c3 BAG |"^#" FEDE FGAB | %29
w: pen- sé- * * * * *||e,|que se- pa-|rer ne se- ront|nul- * * * *||
 c2 G2 d2 c2 | d2 G2 A4- |1[M:2/4] A4 :|2[M:2/2] d2 G2 A4 || D8 |] %34
w: |* le- ment,|_|(nul)- * le-|ment.|

